actions/22/go-down.svg

<?xml version="1.0" encoding="UTF-8" standalone="no"?>
<!-- Created with Inkscape (http://www.inkscape.org/) -->

<svg
   xmlns:dc="http://purl.org/dc/elements/1.1/"
   xmlns:cc="http://creativecommons.org/ns#"
   xmlns:rdf="http://www.w3.org/1999/02/22-rdf-syntax-ns#"
   xmlns:svg="http://www.w3.org/2000/svg"
   xmlns="http://www.w3.org/2000/svg"
   xmlns:xlink="http://www.w3.org/1999/xlink"
   xmlns:inkscape="http://www.inkscape.org/namespaces/inkscape"
   version="1.0"
   width="22"
   height="22"
   id="svg2497">
  <metadata
     id="metadata25">
    <rdf:RDF>
      <cc:Work
         rdf:about="">
        <dc:format>image/svg+xml</dc:format>
        <dc:type
           rdf:resource="http://purl.org/dc/dcmitype/StillImage" />
      </cc:Work>
    </rdf:RDF>
  </metadata>
  <defs
     id="defs2499">
    <linearGradient
       id="linearGradient5105-262-943-861">
      <stop
         id="stop2487"
         style="stop-color:#0d0d0d;stop-opacity:1"
         offset="0" />
      <stop
         id="stop2489"
         style="stop-color:#0d0d0d;stop-opacity:0"
         offset="1" />
    </linearGradient>
    <radialGradient
       cx="11.25"
       cy="19.03125"
       r="8.0625"
       fx="11.25"
       fy="19.03125"
       id="radialGradient2505"
       xlink:href="#linearGradient5105-262-943-861"
       gradientUnits="userSpaceOnUse"
       gradientTransform="matrix(1,0,0,0.282946,0,13.64644)" />
    <linearGradient
       id="linearGradient2264">
      <stop
         id="stop2266"
         style="stop-color:#d7e866;stop-opacity:1"
         offset="0" />
      <stop
         id="stop2268"
         style="stop-color:#8cab2a;stop-opacity:1"
         offset="1" />
    </linearGradient>
    <linearGradient
       x1="28.314739"
       y1="20.709501"
       x2="0.81572169"
       y2="20.709501"
       id="linearGradient3292"
       xlink:href="#linearGradient2264"
       gradientUnits="userSpaceOnUse"
       gradientTransform="matrix(0,-0.4917505,-0.482368,0,22.524238,21.407852)" />
    <linearGradient
       id="linearGradient4222">
      <stop
         id="stop4224"
         style="stop-color:#ffffff;stop-opacity:1"
         offset="0" />
      <stop
         id="stop4226"
         style="stop-color:#ffffff;stop-opacity:0"
         offset="1" />
    </linearGradient>
    <linearGradient
       x1="13.471772"
       y1="25.410501"
       x2="57.726395"
       y2="25.410501"
       id="linearGradient3294"
       xlink:href="#linearGradient4222"
       gradientUnits="userSpaceOnUse"
       gradientTransform="matrix(0,0.5703354,-0.5568703,0,25.661377,-3.8655828)" />
    <radialGradient
       cx="11.25"
       cy="19.03125"
       r="8.0625"
       fx="11.25"
       fy="19.03125"
       id="radialGradient2448"
       xlink:href="#linearGradient5105-262-943-861"
       gradientUnits="userSpaceOnUse"
       gradientTransform="matrix(1,0,0,0.282946,0,13.64644)" />
    <linearGradient
       x1="28.314739"
       y1="20.709501"
       x2="0.81572169"
       y2="20.709501"
       id="linearGradient2450"
       xlink:href="#linearGradient2264"
       gradientUnits="userSpaceOnUse"
       gradientTransform="matrix(0,-0.4917505,-0.482368,0,23.524238,22.407852)" />
    <linearGradient
       x1="13.471772"
       y1="25.410501"
       x2="57.726395"
       y2="25.410501"
       id="linearGradient2452"
       xlink:href="#linearGradient4222"
       gradientUnits="userSpaceOnUse"
       gradientTransform="matrix(0,0.5703354,-0.5568703,0,26.661377,-2.8655828)" />
  </defs>
  <g
     id="layer1">
    <path
       d="m 19.3125,19.03125 a 8.0625,2.28125 0 1 1 -16.125,0 8.0625,2.28125 0 1 1 16.125,0 z"
       inkscape:connector-curvature="0"
       transform="matrix(1.3643411,0,0,1.4465766,-4.3488373,-8.8301638)"
       id="path4346"
       style="opacity:0.16292138;fill:url(#radialGradient2505);fill-opacity:1;fill-rule:nonzero;stroke:none;stroke-width:1;marker:none;visibility:visible;display:inline;overflow:visible" />
    <path
       d="m 20.507286,9.499999 -9.53117,11.007287 -9.4834021,-11.007287 4.007286,0 0,-9.00728579 11.0000001,0 0,9.00728579 4.007286,0 z"
       inkscape:connector-curvature="0"
       id="path3288"
       style="fill:url(#linearGradient3292);fill-opacity:1;fill-rule:nonzero;stroke:#699536;stroke-width:0.98542732;stroke-linecap:round;stroke-linejoin:round;stroke-miterlimit:4;stroke-opacity:1;stroke-dasharray:none;stroke-dashoffset:0;marker:none;visibility:visible;display:inline;overflow:visible" />
    <path
       d="M 18.3874,10.499999 11,19.032054 3.6615229,10.499999 l 2.838477,0 0,-8.9999998 9.0000001,0 0,8.9999998 2.8874,0 z"
       inkscape:connector-curvature="0"
       id="path3290"
       style="opacity:0.35400008;fill:none;stroke:url(#linearGradient3294);stroke-width:0.98542732;stroke-linecap:butt;stroke-linejoin:miter;stroke-miterlimit:4;stroke-opacity:1;stroke-dasharray:none;stroke-dashoffset:0;marker:none;visibility:visible;display:inline;overflow:visible" />
  </g>
</svg>

<?xml version="1.0" encoding="UTF-8" standalone="no"?>
<!-- Created with Inkscape (http://www.inkscape.org/) -->
<svg
   xmlns:svg="http://www.w3.org/2000/svg"
   xmlns="http://www.w3.org/2000/svg"
   xmlns:xlink="http://www.w3.org/1999/xlink"
   version="1.0"
   width="22"
   height="22"
   id="svg2497">
  <defs
     id="defs2499">
    <linearGradient
       id="linearGradient5105-262-943-861">
      <stop
         id="stop2487"
         style="stop-color:#0d0d0d;stop-opacity:1"
         offset="0" />
      <stop
         id="stop2489"
         style="stop-color:#0d0d0d;stop-opacity:0"
         offset="1" />
    </linearGradient>
    <radialGradient
       cx="11.25"
       cy="19.03125"
       r="8.0625"
       fx="11.25"
       fy="19.03125"
       id="radialGradient2505"
       xlink:href="#linearGradient5105-262-943-861"
       gradientUnits="userSpaceOnUse"
       gradientTransform="matrix(1,0,0,0.282946,0,13.64644)" />
    <linearGradient
       id="linearGradient2264">
      <stop
         id="stop2266"
         style="stop-color:#d7e866;stop-opacity:1"
         offset="0" />
      <stop
         id="stop2268"
         style="stop-color:#8cab2a;stop-opacity:1"
         offset="1" />
    </linearGradient>
    <linearGradient
       x1="28.314739"
       y1="20.709501"
       x2="0.81572169"
       y2="20.709501"
       id="linearGradient3292"
       xlink:href="#linearGradient2264"
       gradientUnits="userSpaceOnUse"
       gradientTransform="matrix(0,-0.4917505,-0.482368,0,22.524238,21.407852)" />
    <linearGradient
       id="linearGradient4222">
      <stop
         id="stop4224"
         style="stop-color:#ffffff;stop-opacity:1"
         offset="0" />
      <stop
         id="stop4226"
         style="stop-color:#ffffff;stop-opacity:0"
         offset="1" />
    </linearGradient>
    <linearGradient
       x1="13.471772"
       y1="25.410501"
       x2="57.726395"
       y2="25.410501"
       id="linearGradient3294"
       xlink:href="#linearGradient4222"
       gradientUnits="userSpaceOnUse"
       gradientTransform="matrix(0,0.5703354,-0.5568703,0,25.661377,-3.8655828)" />
    <radialGradient
       cx="11.25"
       cy="19.03125"
       r="8.0625"
       fx="11.25"
       fy="19.03125"
       id="radialGradient2448"
       xlink:href="#linearGradient5105-262-943-861"
       gradientUnits="userSpaceOnUse"
       gradientTransform="matrix(1,0,0,0.282946,0,13.64644)" />
    <linearGradient
       x1="28.314739"
       y1="20.709501"
       x2="0.81572169"
       y2="20.709501"
       id="linearGradient2450"
       xlink:href="#linearGradient2264"
       gradientUnits="userSpaceOnUse"
       gradientTransform="matrix(0,-0.4917505,-0.482368,0,23.524238,22.407852)" />
    <linearGradient
       x1="13.471772"
       y1="25.410501"
       x2="57.726395"
       y2="25.410501"
       id="linearGradient2452"
       xlink:href="#linearGradient4222"
       gradientUnits="userSpaceOnUse"
       gradientTransform="matrix(0,0.5703354,-0.5568703,0,26.661377,-2.8655828)" />
  </defs>
  <g
     id="layer1">
    <path
       d="M 19.3125,19.03125 A 8.0625,2.28125 0 1 1 3.1875,19.03125 A 8.0625,2.28125 0 1 1 19.3125,19.03125 z"
       transform="matrix(1.3643411,0,0,1.4465766,-4.3488373,-8.8301638)"
       id="path4346"
       style="opacity:0.16292138;fill:url(#radialGradient2505);fill-opacity:1;fill-rule:nonzero;stroke:none;stroke-width:1;stroke-linecap:butt;stroke-linejoin:miter;marker:none;marker-start:none;marker-mid:none;marker-end:none;stroke-miterlimit:4;stroke-dasharray:none;stroke-dashoffset:0;stroke-opacity:1;visibility:visible;display:inline;overflow:visible" />
    <path
       d="M 20.507286,9.499999 L 10.976116,20.507286 L 1.4927139,9.499999 L 5.4999999,9.499999 L 5.4999999,0.49271321 L 16.5,0.49271321 L 16.5,9.499999 L 20.507286,9.499999 z"
       id="path3288"
       style="fill:url(#linearGradient3292);fill-opacity:1;fill-rule:nonzero;stroke:#699536;stroke-width:0.98542732;stroke-linecap:round;stroke-linejoin:round;marker:none;marker-start:none;marker-mid:none;marker-end:none;stroke-miterlimit:4;stroke-dasharray:none;stroke-dashoffset:0;stroke-opacity:1;visibility:visible;display:inline;overflow:visible" />
    <path
       d="M 18.3874,10.499999 L 11,19.032054 L 3.6615229,10.499999 L 6.4999999,10.499999 L 6.4999999,1.4999992 L 15.5,1.4999992 L 15.5,10.499999 L 18.3874,10.499999 z"
       id="path3290"
       style="opacity:0.35400002;fill:none;fill-opacity:1;fill-rule:nonzero;stroke:url(#linearGradient3294);stroke-width:0.98542732;stroke-linecap:butt;stroke-linejoin:miter;marker:none;marker-start:none;marker-mid:none;marker-end:none;stroke-miterlimit:4;stroke-dasharray:none;stroke-dashoffset:0;stroke-opacity:1;visibility:visible;display:inline;overflow:visible" />
  </g>
</svg>
